actions/22/extract-archive.svg

<?xml version="1.0" encoding="UTF-8" standalone="no"?>
<svg
   xmlns:dc="http://purl.org/dc/elements/1.1/"
   xmlns:cc="http://creativecommons.org/ns#"
   xmlns:rdf="http://www.w3.org/1999/02/22-rdf-syntax-ns#"
   xmlns:svg="http://www.w3.org/2000/svg"
   xmlns="http://www.w3.org/2000/svg"
   xmlns:sodipodi="http://sodipodi.sourceforge.net/DTD/sodipodi-0.dtd"
   xmlns:inkscape="http://www.inkscape.org/namespaces/inkscape"
   height="16"
   width="16"
   version="1.1"
   id="svg4"
   sodipodi:docname="extract-archive.svg"
   inkscape:version="0.92.3 (2405546, 2018-03-11)">
  <metadata
     id="metadata10">
    <rdf:RDF>
      <cc:Work
         rdf:about="">
        <dc:format>image/svg+xml</dc:format>
        <dc:type
           rdf:resource="http://purl.org/dc/dcmitype/StillImage" />
        <dc:title />
      </cc:Work>
    </rdf:RDF>
  </metadata>
  <defs
     id="defs8" />
  <sodipodi:namedview
     pagecolor="#ffffff"
     bordercolor="#808080666"
     borderopacity="1"
     objecttolerance="10"
     gridtolerance="10"
     guidetolerance="10"
     inkscape:pageopacity="0"
     inkscape:pageshadow="2"
     inkscape:window-width="814"
     inkscape:window-height="480"
     id="namedview6"
     showgrid="false"
     inkscape:zoom="14.75"
     inkscape:cx="-5.4237288"
     inkscape:cy="8"
     inkscape:window-x="810"
     inkscape:window-y="86"
     inkscape:window-maximized="0"
     inkscape:current-layer="svg4" />
  <path
     color="#000"
     d="M2.5 2.035c-.822 0-1.5.678-1.5 1.5v9c0 .823.678 1.5 1.5 1.5h11c.822 0 1.5-.677 1.5-1.5v-9c0-.822-.678-1.5-1.5-1.5zm0 1H6V8l1-1 1 1 1-.75L10 8V3.035h3.5c.286 0 .5.215.5.5v9c0 .286-.214.5-.5.5h-11a.488.488 0 0 1-.5-.5v-9c0-.285.214-.5.5-.5zm4.5 0h2V6l-.906.68L7 5.586z"
     fill="#808080"
     font-family="sans-serif"
     font-weight="400"
     overflow="visible"
     style="line-height:normal;font-variant-ligatures:normal;font-variant-position:normal;font-variant-caps:normal;font-variant-numeric:normal;font-variant-alternates:normal;font-feature-settings:normal;text-indent:0;text-align:start;text-decoration-line:none;text-decoration-style:solid;text-decoration-color:#000;text-transform:none;text-orientation:mixed;shape-padding:0;isolation:auto;mix-blend-mode:normal;fill:#808080;fill-opacity:1"
     white-space="normal"
     id="path2" />
</svg>

<svg xmlns="http://www.w3.org/2000/svg" width="16" height="16" version="1.1">
 <path style="fill:#808080" d="M 2.5,2.035 C 1.678,2.035 1,2.713 1,3.535 V 12.535 C 1,13.358 1.678,14.035 2.5,14.035 H 13.5 C 14.322,14.035 15,13.358 15,12.535 V 3.535 C 15,2.713 14.322,2.035 13.5,2.035 Z M 2.5,3.035 H 6 V 8 L 7,7 8,8 9,7.25 10,8 V 3.035 H 13.5 C 13.786,3.035 14,3.25 14,3.535 V 12.535 C 14,12.821 13.786,13.035 13.5,13.035 H 2.5 A 0.488,0.488 0 0 1 2,12.535 V 3.535 C 2,3.25 2.214,3.035 2.5,3.035 Z M 7,3.035 H 9 V 6 L 8.094,6.68 7,5.586 Z"/>
</svg>
